X:756
T:North Bridge of Edinburgh
R:Strathspey
C:William Marshall
B:The Athole Collection
M:C
L:1/8
K:B Minor
B|F<B ~B>F B/B/B d2|c>B A<c e/d/c/B/ A<c|F<B ~B>F B/B/B d2|
c>Bc>^A ~B2B,:|
|:c|d2 d<f d/d/d f>d|c>B A<e c>Ae>c|1 d2 d<f d/d/d f>d|c>Bd>^A ~B2B:|2
d<fd<f c<A e>c|d>Bc>^A ~B2B,||

